X:1
T:Jesu dulcis memoria 2
T:André Vierendeels
T:(22/02/18)
T:Early melody
T:Jesu dulcis memoria 2
T:ad voces aequales  
T:©
T:©
T:©
C:André Vierendeels
Z:©
%%score [ 1 2 3 4 ]
L:1/8
Q:1/4=100
M:3/4
K:C
V:1 treble-8 nm="Tenor 1" snm="T 1"
V:2 treble-8 nm="Tenor 2" snm="T 2"
V:3 treble-8 nm="Tenor 3" snm="T 3"
V:4 bass nm="Bass" snm="B"
V:1
 e2 e2 e2 | e4 e2 | f4 e2 | !fermata!d6 | d2 e2 f2 | g4 g2 | ^f4 d2 | !fermata!e6 | g2 g2 f2 | %9
w: Je- su dul-|cis me-|mo- ri-|a,|dans ve- ra|cor- dis|gau- *|a:|sed su- per|
w: Nil ca- ni-|tur su-|a- vi-|us,|nil au- di-|tur ju-|cun- *|us,|nil co- gi-|
w: Je- su spes|poe- ni-|ten- ti-|bus,|quam pi- us|es pe-|ten- *|bus!|Quam bo- nus|
 f4 e2 | e4 d2 | !fermata!d6 | e4 e2 | c4 d2 | c2 B2 B2 | !fermata!A6 |] %16
w: mel et|o- mni-|a,|e- jus|dul- cis|prae- sen- ti-|a.|
w: ta- tur|dul- ci-|us,|quam Je-|sus De-|i Fi- li-|us.|
w: te quae-|ren- ti-|bus!|Sed quid|in- ve-|ni- en- ti|bus?|
V:2
 c2 c2 Bc | c A2 B c2 | c2 G2 c2 | !fermata!B6 | A2 c2 c2 | c4 B2 | d4 A2 | !fermata!c6 | %8
w: Je- su dul- *|cis- * * me-|mo- * ri-|a,|dans ve- ra|cor- dis|gau- di-|a:|
w: Nil ca- ni- *|tur _ _ su-|a- * vi-|us,|nil au- di-|tur ju-|cun- di-|us,|
w: Je- su spes _|poe- * * ni-|ten- ti- *|bus,|quam pi- us|es pe-|ten ti-|bus!|
 c2 d2 d2 | c2 dc AB | cB A2 B2 | !fermata!A6 | c4 c2 | A4 A2 | c2 e2 e2 | !fermata!c6 |] %16
w: sed su- per|mel et _ _ _|o- * * mni|a,|e- jus|dul- cis|prae- sen- ti-|a.|
w: nil co- gi-|ta- tur _ _ _|dul- * * ci-|us,|quam Je-|sus De-|i Fi- li-|us.|
w: Quam bo- nus|te quae- * * *|ren- * * ti-|bus!|Sed quid|in- ve-|ni- en- ti-|bus?|
V:3
 A2 G2 G2 | ED EF G2 | F2 D2 GF | !fermata!G6 | F2 G2 A2 | E4 D2 | A2 BA G^F | !fermata!G6 | %8
w: Je- su dul-|cis _ _ _ me-|mo- * ri- *|a,|dans ve- ra|cor- dis|gau- di- * * *|a:|
w: Nil ca- ni-|tur _ _ _ su-|a- * vi- *|us,|nil au- di-|tur ju-|cun- di- * * *|us,|
w: Je- su spes|poe- * * * ni-|ten- * ti- *|bus,|quam pi- us|es pe-|ten- ti- * * *|bus!|
 E2 G2 AG | A4 E2 | GF EF G2 | !fermata!^F6 | A4 G2 | F2 E2 F2 | G2 A2 ^G2 | !fermata!E6 |] %16
w: sed su- per _|mel et|o- * * * mni|a,|e- jus|dul- * cis|prae- sen- ti-|a.|
w: nil co- gi- *|ta- tur|dul- * * * ci-|us,|quam Je-|sus _ De-|i Fi- li-|us.|
w: Quam bo- nus _|ta quae-|ren- * * * ti-|bus!|Sed quid|in- * ve-|ni- en- ti-|bus?|
V:4
 A,,2 C,2 E,2 | A,,B,, C,D, C,2 | A,,2 B,,2 C,2 | !fermata!G,,6 | D,2 C,2 F,,2 | C,4 G,,2 | %6
w: Je- su dul-|cis _ _ _ me-|mo- * ri-|a,|dans ve- ra|cor- dis|
w: Nil ca- ni-|tur _ _ _ su-|a- * vi-|us,|nil au- di-|tur ju-|
w: Je- su spes|poe- * * * ni-|ten- * ti-|bus,|quam pi- us|es pe-|
 D,C, B,,C, D,2 | !fermata!C,6 | C,2 B,,2 D,E, | F,2 D,2 A,,2 | E,D, C,D, G,,2 | !fermata!D,6 | %12
w: gau- * * * di-|a:|sed su- per _|_ mel et|o- * * * mni|a,|
w: cun- * * * di-|us,|nil ci- gi- *|* ta- tur|dul- * * * ci-|us,|
w: ten- * * * ti-|bus!|Quam bo- nus _|_ te quae-|ren- * * * ti-|bus!|
 A,,4 C,2 | F,,2 A,,2 D,2 | E,2 E,2 E,2 | !fermata!A,,6 |] %16
w: e- jus|dul- * cis|prae- sen- ti-|a.|
w: quam Je-|sus _ De-|i Fi- li-|us.|
w: Sed quid|in- * ve-|ni- en- ti-|bus?|

